svg/fluentui-system-icons/ic_fluent_caret_left_24_regular.svg

<svg width="24" height="24" viewBox="0 0 24 24" fill="none" xmlns="http://www.w3.org/2000/svg">
<path d="M12.9268 18.839C13.7351 19.5462 15 18.9722 15 17.8983L15 6.10204C15 5.02809 13.7351 4.45412 12.9268 5.16132L6.61617 10.6831C5.81935 11.3804 5.81935 12.6199 6.61617 13.3172L12.9268 18.839ZM13.5 17.3473L7.60393 12.1883C7.4901 12.0887 7.4901 11.9116 7.60393 11.812L13.5 6.65298L13.5 17.3473Z" fill="#212121"/>
</svg>

<svg xmlns="http://www.w3.org/2000/svg" width="24" height="24"><path d="M12.927 18.839c.808.707 2.073.133 2.073-.94V6.101c0-1.074-1.265-1.648-2.073-.94l-6.31 5.521a1.75 1.75 0 0 0 0 2.634l6.31 5.522Zm.573-1.492-5.896-5.159a.25.25 0 0 1 0-.376L13.5 6.653v10.694Z"/></svg>
